X: 30446
T: Old Walls Of Liscarroll, The
R: jig
M: 6/8
K: Dmixolydian
A3 D3|AGE Adc|AGE cEE|G3 DEG|
A3 D3|AGE Adc|AGE cGE|DED D3:|
Adc ABc|d2d dcA|GEE cEE|G2G DEG|
Adc ABc|d2d dcA|GEE cEE|DED D3|
Adc ABc|d2d dcA|GEE cEE|G2G DEG|
Adc ABc|def dcA|GEE cEE|DED D3||

